X: 16867
T: Haste To The Wedding
R: jig
M: 6/8
K: Dmajor
|:AFA Agf|ede fdB|AFA AGF|~GFG EFG|
AFA Agf|ede fdB|AFA faf|1 ded d3:|2 ded d2f||
|:~afa ~afa|bgb bgb|~afa agf|gfg efg|
.a3 {e}f3|ede fdB|AFA faf|ded d3:|

